X: 1
T: Handsome Sally
M: 4/4
L: 1/8
R: reel
K: Edor
E2 BE GEBE | E2 BE AFDF | E2 B,E GBdB | AFDE FEED |
E2 BE GEBE | E2 BE AFDF | E2 B,E GBdB | AFDE FE E2 |
fedB A3 f | fedB AF D2 | e2 ef gefe | dBAG FD D2 |
fedB A3 f | fedB AF D2 | e2 ef gefe | dBAG FEDF |
